svgs/sharp-thin/user-nurse-hair.svg

<svg xmlns="http://www.w3.org/2000/svg" viewBox="0 0 448 512"><!--! Font Awesome Pro 6.6.0 by @fontawesome - https://fontawesome.com License - https://fontawesome.com/license (Commercial License) Copyright 2024 Fonticons, Inc. --><path d="M112 144l224 0 0-77.5-112-49-112 49 0 77.5zm-16 0l0-88L224 0 352 56l0 88 0 16s0 0 0 0l0 16c0 70.7-57.3 128-128 128s-128-57.3-128-128l0-16s0 0 0 0l0-16zm16 16s0 0 0 0l0 16c0 5.4 .4 10.8 1.1 16l97.9 0 16-32L112 160zm132.9 0l-21.8 43.6-2.2 4.4-4.9 0-99.4 0c13.8 46.3 56.6 80 107.4 80c61.9 0 112-50.1 112-112l0-16s0 0 0 0l-91.1 0zM224 447.3L212.3 435l-93.1-99-43.7 0L22.2 496l403.6 0L372.5 336l-43.7 0-93.1 99L224 447.3zM321.9 320l62.1 0 58.7 176 5.3 16-16.9 0L16.9 512 0 512l5.3-16L64 320l62.1 0L213 412.3 224 424l11-11.7L321.9 320zM232 48l0 24 24 0 8 0 0 16-8 0-24 0 0 24 0 8-16 0 0-8 0-24-24 0-8 0 0-16 8 0 24 0 0-24 0-8 16 0 0 8z"/></svg>

<svg xmlns="http://www.w3.org/2000/svg" viewBox="0 0 448 512"><!--! Font Awesome Pro 6.5.2 by @fontawesome - https://fontawesome.com License - https://fontawesome.com/license (Commercial License) Copyright 2024 Fonticons, Inc. --><path d="M112 144H336V66.5l-112-49-112 49V144zm-16 0V56L224 0 352 56v88 16 0 16c0 70.7-57.3 128-128 128s-128-57.3-128-128V160v0V144zm16 16v0 16c0 5.4 .4 10.8 1.1 16h97.9l16-32H112zm132.9 0l-21.8 43.6-2.2 4.4H216 116.6c13.8 46.3 56.6 80 107.4 80c61.9 0 112-50.1 112-112V160v0H244.9zM224 447.3L212.3 435l-93.1-99H75.5L22.2 496H425.8L372.5 336H328.8l-93.1 99L224 447.3zM321.9 320H384l58.7 176 5.3 16H431.1 16.9 0l5.3-16L64 320h62.1L213 412.3 224 424l11-11.7L321.9 320zM232 48V72h24 8V88h-8H232v24 8H216v-8V88H192h-8V72h8 24V48 40h16v8z"/></svg>
